svg/u1f32c.svg

<svg viewBox="0 0 128 128" xmlns="http://www.w3.org/2000/svg">
  <path d="M3.95,11.39c0,0,0.18,44.33,0.18,59.53s-0.54,49.03,0.72,49.4c1.27,0.36,11.04-10.31,13.03-12.3 c1.99-1.99,4.34-4.7,5.79-4.89c1.45-0.18,13.93,1.09,19.18,0.9s13.21,0,17.19-3.44c3.98-3.44,3.44-12.3,4.34-13.39 c0.9-1.09,3.24-5.03,3.79-6.4c0.55-1.37-0.09-3.2-0.64-3.48c-0.55-0.27-1.19-2.29-1.19-2.29l3.3-5.31c0,0,0-2.2-1.01-2.56 c-1.01-0.37-4.67-0.55-4.76-0.92c-0.09-0.37,2.01-2.11,3.3-3.57c1.28-1.46,1.83-4.49,1.1-5.22c-0.73-0.73-8.24-4.85-9.7-7.41 c-1.46-2.56-3.3-6.41-3.94-7.96c-0.64-1.56-2.11-6.13-3.2-7.78c-1.1-1.65,1.37-2.65,1.37-2.65s6.77-5.58,6.13-12.91 S52.79,6.57,43.45,7.94s-12.45,6.87-12.45,6.87s-5.86-4.3-13.36-5.03S4.26,10.54,3.95,11.39z" fill="#AFE3FE"/>
  <radialGradient id="SVGID_1_" cx="40.7867" cy="59.0986" gradientUnits="userSpaceOnUse" r="80.6578">
    <stop offset="0.6327" stop-color="#AFE3FE"/>
    <stop offset="0.6898" stop-color="#B9E7FE"/>
    <stop offset="0.8547" stop-color="#D2F0FE"/>
    <stop offset="0.9553" stop-color="#DBF3FE"/>
  </radialGradient>
  <path d="M76.96,69.55l-5.02,5.31c0,0,0.8,0.84,1.47,1.24c0.85,0.5,1.78,0.77,1.78,0.77l4.6-3.13 l11.54,0.48c0,0-8.08,3.95-8.7,12.27c-0.64,8.6,4.67,17.21,16.11,17.21s17.11-7.96,17.39-15.01c0.27-6.87-3.48-11.81-3.48-11.81 s12.23-3.6,13.09-14.74c0.92-11.9-7.02-21.85-19.22-22.98c-12.91-1.19-17.96,9.82-18.4,13.82c-0.73,6.68,3.2,12.45,3.2,12.45 L76.96,69.55z" fill="url(#SVGID_1_)"/>
  <path d="M70.91,69.36c0.54,3.74-3.07,6.14-3.07,6.14s1.42,0.37,1.74,1.81c0.28,1.26-0.54,2.48-1.33,3.31 c0,0-0.75-0.99-2.04-2.05c-0.69-0.57-1.56,0-2.23-1.06s1.06-3.18,1.06-3.18s1.56-2.79,2.01-3.74c0.45-0.95,1.35-3.49,1.35-3.49 S70.52,66.73,70.91,69.36z" fill="#4FC1F5"/>
  <path d="M57.17,65.03c-0.59,0.87,0.49,7.44,0,14.02c-0.61,8.21-4.8,13.85-4.13,14.74 c0.93,1.24,7.54-0.56,8.99-15.19C63.07,68.12,58.23,63.46,57.17,65.03z" fill="#4FC1F5"/>
  <path d="M49.66,52.7c-2.04,0.37-0.26,3.87-1.85,4.42c-1,0.35-2.23,0.07-4.07-0.88 c-3.18-1.64-6.27-5.3-7.61-3.34c-1.35,1.96,5.26,14.26,14.03,11.69c2.18-0.64,3.18-2.71,3.34-4.58 C53.77,56.6,51.77,52.31,49.66,52.7z" fill="#159DF5"/>
  <path d="M74.87,76.71c0.52,0.62,1.85,0.29,3.4-0.68c3.34-2.1,10.76-3.05,16.29,0.42 c5.52,3.47,7.11,9.57,3.68,12.75c-2.9,2.69-7.92,1.69-8.36-1.13c-0.35-2.27,2.69-3.12,3.33-0.78c0.28,1.02,2.05,1.91,2.76,0 c0.71-1.91-1.75-7.09-7.15-5.03c-4.98,1.91-3.51,11.19,3.77,12.68c6.59,1.35,14.57-5.03,11.17-14.73 c-2.49-7.1-11.54-11.33-21.25-9.42C77.77,71.72,73.48,75.05,74.87,76.71z" fill="#4FC1F5"/>
  <path d="M72.32,75.32c1.06,0.74,1.43-1.48,3.87-3.48c2.13-1.74,7.18-4.52,14.33-3.46 c7.15,1.06,16.22,4.04,22.8-1.42s5.24-17.92-4.53-21.39s-15.58,2.27-15.23,8.78c0.4,7.31,9.33,7.03,11.24,3.63 c1.63-2.9,0.17-5.33-1.11-5.97c-1.27-0.64-2.99-0.08-2.41,1.84c0.71,2.34-1.91,2.97-3.12,1.56c-1.2-1.42-0.52-5.75,2.62-6.66 c4.89-1.42,13.47,1.95,11.9,10.84c-1.63,9.21-16.71,5.88-22.87,5.1s-13.17,2.05-15.79,4.6C71.4,71.85,70.96,74.38,72.32,75.32z" fill="#4FC1F5"/>
  <path d="M4.02,92.05c-0.4,0.5-0.64,4.52-0.06,4.6c1.31,0.19,11.69-6.81,16.83-21.03s3.23-28.54,3.23-28.54 s3.33-4.13,5.04-7.16c1.71-3.02,2.82-7.76,2.82-7.76s2.72,3.63,9.98,3.93c7.26,0.3,18.46-2.82,20.07-12.7 C63.42,14.22,55,9.7,53.28,9.33c0,0,1.7,1,2.84,2.35c0.79,0.94,1.66,2.26,2.12,3.87c1.11,3.87,0.4,7.49-0.44,9.38 c-1.18,2.63-3.23,5.27-6.97,6.6c-8.17,2.92-18.14,0.13-18.04-4.91c0.1-5.04,6.14-8.43,10.31-8.32c3.07,0.08,4.68,2.69,1.96,4.2 c-2.72,1.51-4.85,0.56-6.06,1.67c-1.07,0.99-0.46,3.06,3.97,2.35s8.17-4.03,7.06-7.46s-7.46-6.52-15.37-1.19 c-6.69,4.51-4.96,10.73-5,11.27c-0.02,0.3-1.92,6.35-4.34,10.49s-5.55,7.86-5.55,7.86s1.34,14.02-1.92,23.59 C13.03,85.3,4.02,92.05,4.02,92.05z" fill="#FFFFFF"/>
</svg>

<svg viewBox="0 0 128 128" xmlns="http://www.w3.org/2000/svg">
  <defs>
    <radialGradient id="SVGID_1_" cx="40.7867" cy="59.0986" gradientUnits="userSpaceOnUse" r="80.6578">
      <stop offset="0.6327" stop-color="#AFE3FE"/>
      <stop offset="0.6898" stop-color="#B9E7FE"/>
      <stop offset="0.8547" stop-color="#D2F0FE"/>
      <stop offset="0.9553" stop-color="#DBF3FE"/>
    </radialGradient>
  </defs>
  <path d="M3.95,11.39 C3.95,11.39 4.13,55.72 4.13,70.92 C4.13,86.12 3.59,119.95 4.85,120.32 C6.12,120.68 15.89,110.01 17.88,108.02 C19.87,106.03 22.22,103.32 23.67,103.13 C25.12,102.95 37.6,104.22 42.85,104.03 C48.1,103.84 56.06,104.03 60.04,100.59 C64.02,97.15 63.48,88.29 64.38,87.2 C65.28,86.11 67.62,82.17 68.17,80.8 C68.72,79.43 68.08,77.6 67.53,77.32 C66.98,77.05 66.34,75.03 66.34,75.03 L69.64,69.72 C69.64,69.72 69.64,67.52 68.63,67.16 C67.62,66.79 63.96,66.61 63.87,66.24 C63.78,65.87 65.88,64.13 67.17,62.67 C68.45,61.21 69,58.18 68.27,57.45 C67.54,56.72 60.03,52.6 58.57,50.04 C57.11,47.48 55.27,43.63 54.63,42.08 C53.99,40.52 52.52,35.95 51.43,34.3 C50.33,32.65 52.8,31.65 52.8,31.65 C52.8,31.65 59.57,26.07 58.93,18.74 C58.29,11.41 52.79,6.57 43.45,7.94 C34.11,9.31 31,14.81 31,14.81 C31,14.81 25.14,10.51 17.64,9.78 C10.14,9.05 4.26,10.54 3.95,11.39 Z" fill="#AFE3FE"/>
  <path d="M76.96,69.55 L71.94,74.86 C71.94,74.86 72.74,75.7 73.41,76.1 C74.26,76.6 75.19,76.87 75.19,76.87 L79.79,73.74 L91.33,74.22 C91.33,74.22 83.25,78.17 82.63,86.49 C81.99,95.09 87.3,103.7 98.74,103.7 C110.18,103.7 115.85,95.74 116.13,88.69 C116.4,81.82 112.65,76.88 112.65,76.88 C112.65,76.88 124.88,73.28 125.74,62.14 C126.66,50.24 118.72,40.29 106.52,39.16 C93.61,37.97 88.56,48.98 88.12,52.98 C87.39,59.66 91.32,65.43 91.32,65.43 L76.96,69.55 Z" fill="url(#SVGID_1_)"/>
  <path d="M70.91,69.36 C71.45,73.1 67.84,75.5 67.84,75.5 C67.84,75.5 69.26,75.87 69.58,77.31 C69.86,78.57 69.04,79.79 68.25,80.62 C68.25,80.62 67.5,79.63 66.21,78.57 C65.52,78 64.65,78.57 63.98,77.51 C63.31,76.45 65.04,74.33 65.04,74.33 C65.04,74.33 66.6,71.54 67.05,70.59 C67.5,69.64 68.4,67.1 68.4,67.1 C68.4,67.1 70.52,66.73 70.91,69.36 Z" fill="#4FC1F5"/>
  <path d="M57.17,65.03 C56.58,65.9 57.66,72.47 57.17,79.05 C56.56,87.26 52.37,92.9 53.04,93.79 C53.97,95.03 60.58,93.23 62.03,78.6 C63.07,68.12 58.23,63.46 57.17,65.03 Z" fill="#4FC1F5"/>
  <path d="M49.66,52.7 C47.62,53.07 49.4,56.57 47.81,57.12 C46.81,57.47 45.58,57.19 43.74,56.24 C40.56,54.6 37.47,50.94 36.13,52.9 C34.78,54.86 41.39,67.16 50.16,64.59 C52.34,63.95 53.34,61.88 53.5,60.01 C53.77,56.6 51.77,52.31 49.66,52.7 Z" fill="#159DF5"/>
  <path d="M74.87,76.71 C75.39,77.33 76.72,77 78.27,76.03 C81.61,73.93 89.03,72.98 94.56,76.45 C100.08,79.92 101.67,86.02 98.24,89.2 C95.34,91.89 90.32,90.89 89.88,88.07 C89.53,85.8 92.57,84.95 93.21,87.29 C93.49,88.31 95.26,89.2 95.97,87.29 C96.68,85.38 94.22,80.2 88.82,82.26 C83.84,84.17 85.31,93.45 92.59,94.94 C99.18,96.29 107.16,89.91 103.76,80.21 C101.27,73.11 92.22,68.88 82.51,70.79 C77.77,71.72 73.48,75.05 74.87,76.71 Z" fill="#4FC1F5"/>
  <path d="M72.32,75.32 C73.38,76.06 73.75,73.84 76.19,71.84 C78.32,70.1 83.37,67.32 90.52,68.38 C97.67,69.44 106.74,72.42 113.32,66.96 C119.9,61.5 118.56,49.04 108.79,45.57 C99.02,42.1 93.21,47.84 93.56,54.35 C93.96,61.66 102.89,61.38 104.8,57.98 C106.43,55.08 104.97,52.65 103.69,52.01 C102.42,51.37 100.7,51.93 101.28,53.85 C101.99,56.19 99.37,56.82 98.16,55.41 C96.96,53.99 97.64,49.66 100.78,48.75 C105.67,47.33 114.25,50.7 112.68,59.59 C111.05,68.8 95.97,65.47 89.81,64.69 C83.65,63.91 76.64,66.74 74.02,69.29 C71.4,71.85 70.96,74.38 72.32,75.32 Z" fill="#4FC1F5"/>
  <path d="M4.02,92.05 C3.62,92.55 3.38,96.57 3.96,96.65 C5.27,96.84 15.65,89.84 20.79,75.62 C25.93,61.4 24.02,47.08 24.02,47.08 C24.02,47.08 27.35,42.95 29.06,39.92 C30.77,36.9 31.88,32.16 31.88,32.16 C31.88,32.16 34.6,35.79 41.86,36.09 C49.12,36.39 60.32,33.27 61.93,23.39 C63.42,14.22 55,9.7 53.28,9.33 C53.28,9.33 54.98,10.33 56.12,11.68 C56.91,12.62 57.78,13.94 58.24,15.55 C59.35,19.42 58.64,23.04 57.8,24.93 C56.62,27.56 54.57,30.2 50.83,31.53 C42.66,34.45 32.69,31.66 32.79,26.62 C32.89,21.58 38.93,18.19 43.1,18.3 C46.17,18.38 47.78,20.99 45.06,22.5 C42.34,24.01 40.21,23.06 39,24.17 C37.93,25.16 38.54,27.23 42.97,26.52 C47.4,25.81 51.14,22.49 50.03,19.06 C48.92,15.63 42.57,12.54 34.66,17.87 C27.97,22.38 29.7,28.6 29.66,29.14 C29.64,29.44 27.74,35.49 25.32,39.63 C22.9,43.77 19.77,47.49 19.77,47.49 C19.77,47.49 21.11,61.51 17.85,71.08 C13.03,85.3 4.02,92.05 4.02,92.05 Z" fill="#FFFFFF"/>
</svg>
